X: 07113
T: TOLEMAN'S DAUGHTER
C: Bob McQuillen 28 May 89
B: Bob's Note Book 7 #113
%R: reel
Z: 2019 John Chambers <jc:trillian.mit.edu>
M: C
L: 1/8
K: G	% and D
fg \
| a2ag f2fe | dedB G2BG | FGAB cedc | Bcde d2fg |\
| a2ag f2fe | decB G2BG | FGAB cedc | B2G2 G2 :|
K: D
|: AG \
| FAdA FAdf | a^gab a2fa | g2eg fafd | cedB A2AG |\
| FAdA FAdf | a^gab afdf | geag fded | A2d2 d2 :|
%%begintext align
%% Donna Fay
%% Mogul of Bellingham, MA. is a really happy
%% dancer. I guess she should be - she's Bill and
%% D.G. Toleman's daughter, and they raised her up
%% right! Watch her on the floor sometime, and
%% tell me what you think!
%%endtext
